public/assets/images/pieces/tactorius/omega/wR.svg

<?xml version="1.0" encoding="utf-8"?>
<svg viewBox="0 0 2048 2048" xmlns="http://www.w3.org/2000/svg">
  <g id="g3343-3" style="fill:#f9f9f9;fill-opacity:1" transform="matrix(0.9999999999999999, 0, 0, 0.9999999999999999, -5.684341886080802e-14, 2.842170943040401e-14)">
    <g id="g3339-6" style="fill:#f9f9f9;fill-opacity:1">
      <g id="g4-7" transform="matrix(1,0,0,-1,0,2048)" style="fill:#f9f9f9;fill-opacity:1">
        <path id="path6-5" style="fill-opacity: 1; fill: rgb(255, 255, 255); stroke: rgb(128, 128, 128);" d="m 489.71094,386.54199 21.33991,295.44106 135.98305,109.16949 -47.83051,689.37296 -154.66102,126.6778 -39.84745,215.1865 h 625.81358 601.9491 l -15.983,-215.1865 -154.661,-126.6778 -54.339,-693.71194 120.7969,-83.13583 38.6953,-317.13574 h -223.916 l -4.3399,151.33984 H 1136.627 V 386.54199 H 924.39062 l -8.67968,151.33984 H 709.28906 V 386.54199 Z" transform="matrix(1,0,0,-1,0,2048)"/>
      </g>
    </g>
  </g>
  <g id="g3343" transform="matrix(0.9999999999999999, 0, 0, 0.9999999999999999, -5.684341886080802e-14, 2.842170943040401e-14)">
    <g id="g3339">
      <g id="g4" transform="matrix(1 0 0 -1 0 2048)" style="fill:#000000">
        <path id="path6" d="m1024 547h-381l5 74h752l5-74h-381zm0 661h-332l5 74h654l5-74h-332zm0-1003h-641l29 264 159 118 50 659-149 107-17 341h289v-147h137v147h286v-147h137v147h289l-17-341-149-107 50-659 159-118 29-264h-641zm0 74h557l-15 149-161 119-54 735 152 109 13 230h-138v-148h-285v148h-138v-148h-285v148h-138l13-230 152-109-54-735-161-119-15-149h557z" style="stroke: rgb(128, 128, 128); fill: rgb(217, 184, 0);"/>
      </g>
    </g>
  </g>
</svg>

<?xml version="1.0" encoding="utf-8"?>
<svg viewBox="0 0 2048 2048" xmlns="http://www.w3.org/2000/svg">
  <g id="g3343-3" style="fill:#f9f9f9;fill-opacity:1" transform="matrix(0.9999999999999999, 0, 0, 0.9999999999999999, -5.684341886080802e-14, 2.842170943040401e-14)">
    <g id="g3339-6" style="fill:#f9f9f9;fill-opacity:1">
      <g id="g4-7" transform="matrix(1,0,0,-1,0,2048)" style="fill:#f9f9f9;fill-opacity:1">
        <path id="path6-5" style="fill-opacity: 1; fill: rgb(255, 255, 255); stroke: rgb(128, 128, 128);" d="M 489.711 386.542 L 511.051 681.983 L 647.034 791.153 L 599.203 1480.526 L 444.542 1607.203 L 404.695 1822.39 L 1030.508 1822.39 L 1632.458 1822.39 L 1616.475 1607.203 L 1461.814 1480.526 L 1451.147 1344.357 L 1407.475 786.814 L 1528.272 703.678 L 1566.967 386.542 L 1343.051 386.542 L 1338.711 537.882 L 1136.627 537.882 L 1136.627 386.542 L 924.391 386.542 L 915.711 537.882 L 709.289 537.882 L 709.289 386.542 L 489.711 386.542 Z" transform="matrix(1,0,0,-1,0,2048)"/>
      </g>
    </g>
  </g>
  <g id="g3343" transform="matrix(0.9999999999999999, 0, 0, 0.9999999999999999, -5.684341886080802e-14, 2.842170943040401e-14)">
    <g id="g3339">
      <g id="g4" transform="matrix(1 0 0 -1 0 2048)" style="fill:#000000">
        <path id="path6" d="m1024 547h-381l5 74h752l5-74h-381zm0 661h-332l5 74h654l5-74h-332zm0-1003h-641l29 264 159 118 50 659-149 107-17 341h289v-147h137v147h286v-147h137v147h289l-17-341-149-107 50-659 159-118 29-264h-641zm0 74h557l-15 149-161 119-54 735 152 109 13 230h-138v-148h-285v148h-138v-148h-285v148h-138l13-230 152-109-54-735-161-119-15-149h557z" style="stroke: rgb(128, 128, 128); fill: rgb(199, 124, 53);"/>
      </g>
    </g>
  </g>
</svg>
